X:1089
T:The Princes Favourite.
M:2/4
L:1/8
Q:1/4=144
I: :| ||
Z:Jack Campin * www.campin.me.uk * 2009
K:D
dAdA|FA`A`A|Bddd|    g2   ec|dAdA|FA`A`d|BGec| d2Dz:|
afga|bc'd'b|afed|{^g}a2{g}a2|afga|bc'd'b|afed|Ha3 A |
dAdA|FA`A`A|Bddd|    g2   ec|dAdA|FA`A`d|BGec| d2Dz|]

